X: 5
T: Pert as a Pearmonger
%R: jig
B: "Twenty Four Country Dances for the Year 1782", Thomas Skillern, ed. p.3 #1
F: http://www.vwml.org/browse/browse-collections-dance-tune-books/browse-skillerns1782#
Z: 2014 John Chambers <jc:trillian.mit.edu>
M: 6/8
L: 1/8
K: G
d |\
B2d A2d | B2d G2d | Bcd EFG | F3 E2d |\
B2d A2d | B2d g2e | fga AB^c | d3 D2 :|
|: d |\
=fed fed | cBc A2c | edc edc | BAB Gdc |\
B2d A2d | BdB gec | Bcd DEF | G3 G2 :|
%%begintext align
%%   First & 2d Cu. Set & half right & left the same
%% back again 1st Cu. cast off & turn, hands 6 round
%% set corners & turn the same again with the
%% other corners lead outsides foot it & turn it out.
%%endtext

%%sep 1 1 500
%%sep 1 1 500
